X: 1
T:Sooth Medomsley Strike
M:6/8
L:1/8
C:Tommy Armstrong
K:D
|A|F2FF2F|F2FE2D|C2E E2F|(E3 E2) F|
G2G G2G|G2G F2E|D2FF2G|(F3 F2) E|F2FF2F|
F F2E2D|C2EE2F|(E3 E3)|G2GG2G|G G2 F2 E|
E2DD2E|D3 D3 E|F2FF2G|A3 F2F|G2GA|
(B3 B3)|^G2 G G2 A|B2 ^G F2E|A2AA2B|(c3 c2) A|
d2dd2 B|A2F D2G| G2F G2A|(B3 B2) B|A2AA2A|
c2 cc2B|A2 G F2 E|D3 A2G| F2F F2D|F F2 F2 D|
F2F F2G|(F3 F2) F|G2 G G2 G|G2 F E2 D|C2 A A2 B|
(A3 A2) G| F2 E F2 G
A2F E2 D| G2 GG2A|(B3 B2) B|
AAA A2 A| c2c c2 B
A2 G F2 E|(D3 D2)||
